X:76
T:No.76 Paddy Hiudai's Jig
C:slip jig
M:9/8
L:1/8
K:D
d2f afd dcd|Bcd efd cBA|
d2f afd dcd|[1Bcd edc d2A:|
|[2Bcd edc def||ecA AAA cBA|
d2e fdf agf|ecA AAA cBA|
|[1d2e fdc dgf:|[2d2e fdc d2A||
